X: 1595
T: Ann MacFarlane's Favourite
R: jig
M: 6/8
K: Dmajor
A3 AFD|DFA Adf|a^ga afd|A3 A^GA|
B3 BGE|B,EG g2 a|bag faf|ecA aec|
A3 AFD|DFA Adf|a^ga afd|A3 DEF|
GAB EFG|Adc BAG|FED A,DC|D3 D2 f|
a3 afd|fdB ADD|A,DF Adf|a3 a^ga|
b3 bge|Beg bc'd'|e'd'c' b2 g|f3 fg^g|
a^gb afd|fdB AFD|A,DF Adf|a3 def|
gab efg|ad'c' bag|fec ABc|d3 d3||

